assets/icons/file_icons/coffee.svg

<?xml version="1.0" encoding="UTF-8"?><svg id="Done" xmlns="http://www.w3.org/2000/svg" xmlns:xlink="http://www.w3.org/1999/xlink" viewBox="0 0 14 14"><defs><style>.cls-1{opacity:.25;}.cls-1,.cls-2,.cls-3,.cls-4,.cls-5{fill-rule:evenodd;}.cls-2{fill:#aa592d;}.cls-3{fill:#330c00;stroke:#bf7445;stroke-miterlimit:10;stroke-width:.5px;}.cls-6{fill:none;}.cls-4{fill:#a5531c;}.cls-5{fill:#fff;opacity:.1;}</style><clipPath id="clippath"><path class="cls-6" d="m-13.5539,11.2769l-4.998,2.499c-.2821.141-.6141.141-.8962,0l-4.998-2.499c-.3395-.1697-.5539-.5167-.5539-.8962v-5.7615c0-.3795.2144-.7265.5539-.8962l4.998-2.499c.2821-.141.6141-.141.8962,0l4.998,2.499c.3395.1697.5539.5167.5539.8962v5.7615c0,.3795-.2144.7265-.5539.8962Z"/></clipPath></defs><g id="Layer_72"><path class="cls-3" d="m10.7391,3.9c0,.6213-1.9867,1.1249-4.7391,1.1249s-4.7412-.5036-4.7412-1.1249,1.9888-1.1249,4.7412-1.1249,4.7391.5036,4.7391,1.1249Z"/><path class="cls-4" d="m1,4v7c0,.8665.7412,1.9281,1.4722,2.3933.741.4715,2.5278.6067,3.5278.6067s2.7313-.1353,3.4723-.6067c.7311-.4651,1.5277-1.5267,1.5277-2.3933v-7c-1,1-4,1-5,1s-4,0-5-1Z"/><path class="cls-1" d="m6,14c1,0,2.7313-.1353,3.4723-.6067.7311-.4651,1.5277-1.5267,1.5277-2.3933v-7c-.4191.4191-1.1895.6626-2.0168.804,2.0168,7.196-3.9832,9.196-2.9832,9.196Z"/><path class="cls-5" d="m1,4v7c0,.8665.7412,1.9281,1.4722,2.3933.1389.0884.3146.165.515.2311l.003-8.8249c-.8172-.1421-1.5756-.3848-1.9902-.7994Z"/><path class="cls-2" d="m11,4.9745v1.0255c1,0,2,0,2,2s-1,2-2,2v1c2,0,3,0,3-3s-1-3-3-3.0255Z"/></g></svg>

<svg xmlns="http://www.w3.org/2000/svg" viewBox="0 0 14 14"><path fill="#330c00" fill-rule="evenodd" stroke="#bf7445" stroke-miterlimit="10" stroke-width=".5" d="M10.74 3.9c0 .621-1.988 1.125-4.74 1.125S1.259 4.52 1.259 3.9 3.248 2.775 6 2.775s4.74.504 4.74 1.125Z"/><path fill="#a5531c" fill-rule="evenodd" d="M1 4v7c0 .867.741 1.928 1.472 2.393C3.213 13.865 5 14 6 14s2.731-.135 3.472-.607C10.203 12.928 11 11.867 11 11V4c-1 1-4 1-5 1S2 5 1 4"/><path fill-rule="evenodd" d="M6 14c1 0 2.731-.135 3.472-.607C10.203 12.928 11 11.867 11 11V4c-.42.42-1.19.663-2.017.804C11 12 5 14 6 14" opacity=".25"/><path fill="#fff" fill-rule="evenodd" d="M1 4v7c0 .867.741 1.928 1.472 2.393.14.089.315.165.515.231L2.99 4.8C2.173 4.657 1.415 4.415 1 4" opacity=".1"/><path fill="#aa592d" fill-rule="evenodd" d="M11 4.975V6c1 0 2 0 2 2s-1 2-2 2v1c2 0 3 0 3-3s-1-3-3-3.025"/></svg>
